X: 116
T:Noughties Reel
M:4/4
L:1/8
C:Chas Blacker
R:Reel
Z:Chas Blacker
K:Bm
B2 fB dfBd|~f3g efdB|~A3B cdec|deaf efdA|B2 fB dfBd|~f3g efde|feaf eafd|
efdA B2 dc:||BfgB fgfB|AefA efeA|GdeG dedG|F2cd efdA|BfgB AefA|GdeG Fcd
e|feaf eafd|efdA B2dc:||
<end>
<start>
